icons/linear-new-finance-wallet-2.svg

<svg xmlns="http://www.w3.org/2000/svg" width="32px" height="32px" viewBox="0 0 32 32" version="1.1">
    <title>linear-new-finance-wallet-2</title>
    <g id="linear-new-finance-wallet-2" stroke-width="1" fill-rule="evenodd">
        <path d="M28,9 C28.5522847,9 29,9.44771525 29,10 L29,14.5 C29,15.0522847 28.5522847,15.5 28,15.5 L22.5,15.5 C20.8431458,15.5 19.5,16.8431458 19.5,18.5 C19.5,20.1568542 20.8431458,21.5 22.5,21.5 L28,21.5 C28.5522847,21.5 29,21.9477153 29,22.5 L29,27 C29,27.5522847 28.5522847,28 28,28 L4,28 C3.44771525,28 3,27.5522847 3,27 L3,10 C3,9.44771525 3.44771525,9 4,9 L28,9 Z M27,11 L5,11 L5,26 L27,26 L27,23.5 L22.5,23.5 C19.8112453,23.5 17.6181819,21.3776933 17.5046195,18.7168896 L17.5,18.5 C17.5,15.7385763 19.7385763,13.5 22.5,13.5 L27,13.5 L27,11 Z M23.5,17 C24.3284271,17 25,17.6715729 25,18.5 C25,19.3284271 24.3284271,20 23.5,20 L22.5,20 C21.6715729,20 21,19.3284271 21,18.5 C21,17.6715729 21.6715729,17 22.5,17 L23.5,17 Z M20.7682213,2.3598156 L24.635,6.99995162 L22.031,6.99995162 L19.792,4.313 L15.538,6.99995162 L11.794,6.99995162 L19.466007,2.1545111 C19.8901316,1.88664293 20.4470841,1.97445094 20.7682213,2.3598156 Z" id="&#24418;&#29366;" fill-rule="nonzero" />
    </g>
</svg>

<svg xmlns="http://www.w3.org/2000/svg" viewBox="0 0 32 32"><path fill="currentColor" d="M28 9a1 1 0 0 1 1 1v4.5a1 1 0 0 1-1 1h-5.5a3 3 0 0 0 0 6H28a1 1 0 0 1 1 1V27a1 1 0 0 1-1 1H4a1 1 0 0 1-1-1V10a1 1 0 0 1 1-1zm-1 2H5v15h22v-2.5h-4.5a5 5 0 0 1-4.995-4.783L17.5 18.5a5 5 0 0 1 5-5H27zm-3.5 6a1.5 1.5 0 0 1 0 3h-1a1.5 1.5 0 0 1 0-3zM20.768 2.36 24.635 7h-2.604l-2.239-2.687L15.538 7h-3.744l7.672-4.845a1 1 0 0 1 1.302.205"/></svg>
